X:5697
T:Gan Ainm
R:Reel
C:
S:
H:
N:
D:Milltown Session
Z:Adrian Scahill
M:4/4
L:1/8
K:D
dAA2 FAA2|dAeA fAeA|dAA2 FAA2|E3 E- EFGA|\
dAA2 FAA2|dAeA fAef|g3 f- fgfe|dBBA d3A:||\
defe f3g-|gfed BcdA|defe f3g-|gfea fedA|\
defe f3g-|gfed Bcde|fAAf gAfA|edce d4:||
